X: 3339
T: Belles Of Tipperary, The
R: reel
M: 4/4
K: Dmajor
|:D2 FA D2 FA|defe dBBA|B2 AF ABde|f2 ed fe e2|
dA A2 DEFA|defe dBBA|B2 AF ABdB|AFEG FD D2:|
|:faaf afdf|gfed (3Bcd ef|g3f gbag|faaf egfe|
dB B2 AF F2|DF F2 ABdf|afef dBAF|A2 ag fd d2:|

